src/assets/svg/icons/fa/nuevos/classic/duotone/dong-sign classic duotone.svg

<svg xmlns="http://www.w3.org/2000/svg" viewBox="0 0 384 512"><!--! Font Awesome Pro 6.4.0 by @fontawesome - https://fontawesome.com License - https://fontawesome.com/license (Commercial License) Copyright 2023 Fonticons, Inc. --><defs><style>.fa-secondary{opacity:.4}</style></defs><path class="fa-primary" d="M288 32c-17.7 0-32 14.3-32 32V177.1c-18.8-10.9-40.7-17.1-64-17.1c-70.7 0-128 57.3-128 128s57.3 128 128 128c24.5 0 47.4-6.9 66.8-18.8c5 11.1 16.2 18.8 29.2 18.8c17.7 0 32-14.3 32-32V288 64c0-17.7-14.3-32-32-32zM128 288a64 64 0 1 1 128 0 64 64 0 1 1 -128 0z"/><path class="fa-secondary" d="M256 64v64H224c-17.7 0-32-14.3-32-32s14.3-32 32-32h32zm64 64V64c17.7 0 32 14.3 32 32s-14.3 32-32 32zM0 480c0-17.7 14.3-32 32-32H352c17.7 0 32 14.3 32 32s-14.3 32-32 32H32c-17.7 0-32-14.3-32-32z"/></svg>

<svg xmlns="http://www.w3.org/2000/svg" viewBox="0 0 384 512"><defs><style>.fa-secondary{opacity:.4}</style></defs><path class="fa-primary" d="M320 64V384C320 401.7 305.7 416 288 416C275 416 263.9 408.3 258.8 397.2C239.4 409.1 216.5 416 192 416C121.3 416 64 358.7 64 288C64 217.3 121.3 160 192 160C215.3 160 237.2 166.2 256 177.1V64C256 46.33 270.3 32 288 32C305.7 32 320 46.33 320 64V64zM256 288C256 252.7 227.3 224 192 224C156.7 224 128 252.7 128 288C128 323.3 156.7 352 192 352C227.3 352 256 323.3 256 288z"/><path class="fa-secondary" d="M256 128H224C206.3 128 192 113.7 192 96C192 78.33 206.3 64 224 64H256V128zM320 64C337.7 64 352 78.33 352 96C352 113.7 337.7 128 320 128V64zM0 480C0 462.3 14.33 448 32 448H352C369.7 448 384 462.3 384 480C384 497.7 369.7 512 352 512H32C14.33 512 0 497.7 0 480z"/></svg>
